svg/l/NR.svg

<svg width="32" height="24" viewBox="0 0 32 24" fill="none" xmlns="http://www.w3.org/2000/svg">
<g clip-path="url(#clip0_270_67365)">
<rect width="32" height="24" fill="white"/>
<path fill-rule="evenodd" clip-rule="evenodd" d="M0 0V24H32V0H0Z" fill="#2E42A5"/>
<mask id="mask0_270_67365" style="mask-type:luminance" maskUnits="userSpaceOnUse" x="0" y="0" width="32" height="24">
<path fill-rule="evenodd" clip-rule="evenodd" d="M0 0V24H32V0H0Z" fill="white"/>
</mask>
<g mask="url(#mask0_270_67365)">
<path fill-rule="evenodd" clip-rule="evenodd" d="M0 8V12H32V8H0Z" fill="#FECA00"/>
<path fill-rule="evenodd" clip-rule="evenodd" d="M8.82963 19.5796L7.28454 21.5849L7.21322 19.0544L4.78454 19.7686L6.21422 17.6794L3.82963 16.8296L6.21422 15.9798L4.78454 13.8907L7.21322 14.6048L7.28454 12.0743L8.82963 14.0796L10.3747 12.0743L10.446 14.6048L12.8747 13.8907L11.445 15.9798L13.8296 16.8296L11.445 17.6794L12.8747 19.7686L10.446 19.0544L10.3747 21.5849L8.82963 19.5796Z" fill="#F7FCFF"/>
</g>
</g>
<defs>
<clipPath id="clip0_270_67365">
<rect width="32" height="24" fill="white"/>
</clipPath>
</defs>
</svg>

<svg width="32" height="24" fill="none" xmlns="http://www.w3.org/2000/svg">
  <path fill-rule="evenodd" clip-rule="evenodd" d="M0 0v24h32V0H0z" fill="#2E42A5"/>
  <mask id="a" maskUnits="userSpaceOnUse" x="0" y="0" width="32" height="24">
    <path fill-rule="evenodd" clip-rule="evenodd" d="M0 0v24h32V0H0z" fill="#fff"/>
  </mask>
  <g mask="url(#a)" fill-rule="evenodd" clip-rule="evenodd">
    <path d="M0 8v4h32V8H0z" fill="#FECA00"/>
    <path d="M8.83 19.58l-1.545 2.005-.072-2.53-2.428.714 1.43-2.09-2.385-.85 2.384-.85-1.43-2.088 2.43.714.07-2.53L8.83 14.08l1.545-2.006.071 2.53 2.429-.713-1.43 2.089 2.385.85-2.385.85 1.43 2.089-2.429-.715-.071 2.53L8.83 19.58z" fill="#F7FCFF"/>
  </g>
</svg>
